src/com/lilithsthrone/res/statusEffects/race/raceFoxMorph.svg

<?xml version="1.0" encoding="UTF-8" standalone="no"?>
<!-- Created with Inkscape (http://www.inkscape.org/) -->

<svg
   xmlns:dc="http://purl.org/dc/elements/1.1/"
   xmlns:cc="http://creativecommons.org/ns#"
   xmlns:rdf="http://www.w3.org/1999/02/22-rdf-syntax-ns#"
   xmlns:svg="http://www.w3.org/2000/svg"
   xmlns="http://www.w3.org/2000/svg"
   xmlns:sodipodi="http://sodipodi.sourceforge.net/DTD/sodipodi-0.dtd"
   xmlns:inkscape="http://www.inkscape.org/namespaces/inkscape"
   width="100%"
   height="100%"
   viewBox="0 0 64.000001 64.000001"
   id="svg4311"
   version="1.1"
   inkscape:version="0.92.3 (2405546, 2018-03-11)"
   sodipodi:docname="raceFoxMorph.svg">
  <defs
     id="defs4313">
    <inkscape:path-effect
       effect="powerstroke"
       id="path-effect4155"
       is_visible="true"
       offset_points="0.92799346,1.2886104"
       sort_points="true"
       interpolator_type="Linear"
       interpolator_beta="0.2"
       start_linecap_type="zerowidth"
       linejoin_type="round"
       miter_limit="4"
       end_linecap_type="zerowidth"
       cusp_linecap_type="round" />
    <inkscape:path-effect
       effect="powerstroke"
       id="path-effect4151"
       is_visible="true"
       offset_points="0,0.5"
       sort_points="true"
       interpolator_type="CubicBezierJohan"
       interpolator_beta="0.2"
       start_linecap_type="zerowidth"
       linejoin_type="round"
       miter_limit="4"
       end_linecap_type="zerowidth"
       cusp_linecap_type="round" />
    <inkscape:path-effect
       effect="powerstroke"
       id="path-effect4147"
       is_visible="true"
       offset_points="0,0.5"
       sort_points="true"
       interpolator_type="CubicBezierJohan"
       interpolator_beta="0.2"
       start_linecap_type="zerowidth"
       linejoin_type="round"
       miter_limit="4"
       end_linecap_type="zerowidth"
       cusp_linecap_type="round" />
    <inkscape:path-effect
       effect="powerstroke"
       id="path-effect4183"
       is_visible="true"
       offset_points="0.238227,0.51804536"
       sort_points="true"
       interpolator_type="Linear"
       interpolator_beta="0.2"
       start_linecap_type="zerowidth"
       linejoin_type="round"
       miter_limit="4"
       end_linecap_type="zerowidth"
       cusp_linecap_type="round" />
  </defs>
  <sodipodi:namedview
     id="base"
     pagecolor="#ffffff"
     bordercolor="#666666"
     borderopacity="1.0"
     inkscape:pageopacity="0.0"
     inkscape:pageshadow="2"
     inkscape:zoom="3.959798"
     inkscape:cx="-30.252691"
     inkscape:cy="33.668632"
     inkscape:document-units="px"
     inkscape:current-layer="layer5"
     showgrid="false"
     units="px"
     inkscape:window-width="2560"
     inkscape:window-height="1388"
     inkscape:window-x="-8"
     inkscape:window-y="-8"
     inkscape:window-maximized="1" />
  <metadata
     id="metadata4316">
    <rdf:RDF>
      <cc:Work
         rdf:about="">
        <dc:format>image/svg+xml</dc:format>
        <dc:type
           rdf:resource="http://purl.org/dc/dcmitype/StillImage" />
        <dc:title />
      </cc:Work>
    </rdf:RDF>
  </metadata>
  <g
     inkscape:groupmode="layer"
     id="layer5"
     inkscape:label="Stage5"
     style="display:inline;opacity:1">
    <path
       style="fill:#ff8080;fill-opacity:1;stroke:#000000;stroke-width:1px;stroke-linecap:butt;stroke-linejoin:miter;stroke-opacity:1"
       d="M 22.3125 13.648438 C 21.312357 13.785086 22.322266 15.214844 22.322266 15.214844 C 22.322266 15.214844 18.691658 12.358722 20.011719 15.324219 C 21.331779 18.289717 23.203125 21.255859 23.203125 21.255859 L 23.751953 22.902344 L 22.322266 22.462891 C 22.322266 22.462891 23.642452 24.77035 22.982422 25.978516 C 22.322392 27.186681 19.682898 31.250818 19.462891 32.458984 C 19.24288 33.66715 19.57277 35.643975 18.802734 37.181641 C 18.032698 38.719306 13.191406 44.101562 13.191406 44.101562 C 13.191406 44.101562 11.43101 45.528501 11.541016 46.1875 C 11.651022 46.8465 12.091357 47.726225 13.191406 48.275391 C 14.291459 48.824557 17.703125 49.263672 17.703125 49.263672 C 17.703125 49.263672 18.582348 49.703005 20.232422 49.263672 C 21.8825 48.824339 25.513483 46.736786 27.933594 46.626953 C 30.353703 46.51712 32.443359 47.505859 32.443359 47.505859 L 32.001953 56.402344 L 33.103516 55.414062 L 33.175781 58.207031 A 26 26 0 0 0 34.083984 58.175781 L 34.09375 58.160156 L 34.316406 58.160156 A 26 26 0 0 0 58.373047 32.714844 C 57.307834 31.615614 56.423828 30.810547 56.423828 30.810547 L 53.894531 30.810547 L 56.314453 29.273438 C 56.314453 29.273438 52.463331 24.880401 51.363281 24.990234 C 50.263232 25.100067 46.523438 24.990234 46.523438 24.990234 L 50.484375 22.023438 C 50.484375 22.023438 45.863908 21.476082 42.34375 19.71875 C 38.823591 17.961418 37.94298 17.412109 35.962891 17.412109 C 33.982801 17.412109 32.222656 17.740234 32.222656 17.740234 C 32.222656 17.740234 24.743132 14.007234 22.873047 13.677734 C 22.639286 13.636547 22.455378 13.628916 22.3125 13.648438 z "
       id="path859" />
  </g>
</svg>

<svg xmlns="http://www.w3.org/2000/svg" viewBox="0 0 64 64">
    <path fill="#ff8080" stroke="#000" d="M22.313 13.648c-1 .137.01 1.567.01 1.567s-3.631-2.856-2.311.11c1.32 2.965 3.191 5.93 3.191 5.93l.549 1.647-1.43-.44s1.32 2.308.66 3.517c-.66 1.208-3.3 5.272-3.52 6.48-.22 1.208.11 3.185-.66 4.723-.77 1.537-5.61 6.92-5.61 6.92s-1.761 1.427-1.651 2.086c.11.658.55 1.538 1.65 2.087 1.1.55 4.512.989 4.512.989s.88.439 2.53 0c1.65-.44 5.28-2.527 7.7-2.637 2.42-.11 4.51.879 4.51.879l-.441 8.896 1.102-.988.072 2.793a26 26 0 0 0 .908-.031l.01-.016h.222a26 26 0 0 0 24.057-25.445c-1.065-1.1-1.95-1.904-1.95-1.904h-2.528l2.42-1.538s-3.852-4.393-4.952-4.283c-1.1.11-4.84 0-4.84 0l3.961-2.967s-4.62-.547-8.14-2.304c-3.52-1.758-4.401-2.307-6.381-2.307-1.98 0-3.74.328-3.74.328s-7.48-3.733-9.35-4.062a1.86 1.86 0 0 0-.56-.03z"/>
</svg>
